src/images/NextJS.svg

<svg width="97" height="97" viewBox="0 0 97 97" fill="none" xmlns="http://www.w3.org/2000/svg">
<g clip-path="url(#clip0_24_978)">
<path d="M45.3236 0.026103C45.115 0.0450641 44.4512 0.111428 43.8539 0.15883C30.0766 1.40078 17.1717 8.83351 8.99834 20.2575C4.44702 26.6095 1.53607 33.8147 0.436168 41.4465C0.0474096 44.1105 0 44.8974 0 48.5095C0 52.1216 0.0474096 52.9085 0.436168 55.5725C3.07214 73.7846 16.0339 89.0861 33.6134 94.7555C36.7614 95.7699 40.0801 96.462 43.8539 96.8791C45.3236 97.0403 51.6764 97.0403 53.1461 96.8791C59.6602 96.1586 65.1787 94.5469 70.6213 91.7691C71.4557 91.3425 71.6169 91.2287 71.5031 91.1339C71.4273 91.077 67.8716 86.3083 63.6047 80.5442L55.8485 70.0682L46.1295 55.6862C40.7817 47.7795 36.3821 41.3138 36.3442 41.3138C36.3063 41.3043 36.2683 47.6942 36.2494 55.4966C36.2209 69.1581 36.2114 69.7079 36.0408 70.0303C35.7942 70.4948 35.6046 70.6844 35.2064 70.893C34.9029 71.0447 34.6374 71.0731 33.2057 71.0731H31.5653L31.1291 70.7982C30.8447 70.6181 30.6361 70.3811 30.4938 70.1061L30.2947 69.6795L30.3137 50.6711L30.3421 31.6531L30.6361 31.2834C30.7878 31.0843 31.1102 30.8283 31.3377 30.7051C31.7265 30.5155 31.8782 30.4965 33.5186 30.4965C35.4529 30.4965 35.7753 30.5723 36.2778 31.1222C36.42 31.2739 41.6825 39.1996 47.9785 48.7465C54.2745 58.2934 62.8841 71.3291 67.113 77.7285L74.7934 89.3611L75.1821 89.1051C78.624 86.8677 82.2651 83.6822 85.1476 80.3641C91.2824 73.32 95.2364 64.7307 96.5638 55.5725C96.9526 52.9085 97 52.1216 97 48.5095C97 44.8974 96.9526 44.1105 96.5638 41.4465C93.9279 23.2344 80.9661 7.93286 63.3866 2.26351C60.286 1.25857 56.9863 0.566493 53.2884 0.14935C52.3781 0.0545446 46.1106 -0.0497411 45.3236 0.026103ZM65.1787 29.3588C65.6338 29.5864 66.0036 30.0225 66.1364 30.4775C66.2122 30.724 66.2312 35.9952 66.2122 47.8743L66.1838 64.9203L63.178 60.3127L60.1628 55.7052V43.3142C60.1628 35.3031 60.2007 30.7999 60.2576 30.5818C60.4093 30.0509 60.7411 29.6338 61.1963 29.3873C61.585 29.1882 61.7273 29.1692 63.2159 29.1692C64.6193 29.1692 64.8658 29.1882 65.1787 29.3588Z" fill="url(#paint0_linear_24_978)"/>
</g>
<defs>
<linearGradient id="paint0_linear_24_978" x1="9.19246" y1="86.4698" x2="90.9638" y2="3.21481" gradientUnits="userSpaceOnUse">
<stop offset="0.00833321" stop-color="#5C03BC"/>
<stop offset="0.53125" stop-color="#E536AB"/>
<stop offset="0.898958" stop-color="#F4E5F0"/>
</linearGradient>
<clipPath id="clip0_24_978">
<rect width="97" height="97" fill="white"/>
</clipPath>
</defs>
</svg>

<svg xmlns="http://www.w3.org/2000/svg" width="97" height="97" fill="none"><g clip-path="url(#a)"><path fill="url(#b)" d="M45.324.026c-.209.02-.873.085-1.47.133C30.077 1.4 17.172 8.834 8.998 20.258 4.447 26.61 1.536 33.815.436 41.447.047 44.11 0 44.897 0 48.51c0 3.612.047 4.398.436 7.063 2.636 18.212 15.598 33.513 33.177 39.182 3.148 1.015 6.467 1.707 10.24 2.124 1.47.161 7.823.161 9.293 0 6.514-.72 12.033-2.332 17.475-5.11.835-.427.996-.54.882-.635-.076-.057-3.631-4.826-7.898-10.59l-7.756-10.476-9.72-14.382c-5.347-7.907-9.747-14.372-9.785-14.372-.038-.01-.076 6.38-.095 14.183-.028 13.661-.038 14.21-.208 14.533-.247.465-.436.654-.835.863-.303.152-.569.18-2 .18h-1.64l-.437-.275a1.773 1.773 0 0 1-.635-.692l-.2-.426.02-19.009.028-19.018.294-.37c.152-.199.474-.455.702-.578.389-.19.54-.208 2.18-.208 1.935 0 2.257.075 2.76.625.142.152 5.404 8.078 11.7 17.624 6.297 9.547 14.906 22.583 19.135 28.982l7.68 11.633.39-.256c3.441-2.237 7.082-5.423 9.965-8.74 6.134-7.045 10.088-15.634 11.416-24.792.389-2.665.436-3.451.436-7.063 0-3.613-.047-4.4-.436-7.063C93.928 23.233 80.966 7.932 63.387 2.264 60.286 1.259 56.987.566 53.288.149c-.91-.094-7.177-.199-7.964-.123ZM65.179 29.36c.455.227.825.663.957 1.118.076.247.095 5.518.076 17.397l-.028 17.046-3.006-4.607-3.015-4.608v-12.39c0-8.012.038-12.515.095-12.733.151-.531.483-.948.938-1.195.389-.199.531-.218 2.02-.218 1.403 0 1.65.02 1.963.19Z"/></g><defs><linearGradient id="b" x1="9.192" x2="90.964" y1="86.47" y2="3.215" gradientUnits="userSpaceOnUse"><stop offset=".008" stop-color="#5C03BC"/><stop offset=".531" stop-color="#E536AB"/><stop offset=".899" stop-color="#F4E5F0"/></linearGradient><clipPath id="a"><path fill="#fff" d="M0 0h97v97H0z"/></clipPath></defs></svg>
